icons/mimetypes/64/image-x-generic.svg

<?xml version="1.0" encoding="UTF-8" standalone="no"?>
<svg
   xmlns:dc="http://purl.org/dc/elements/1.1/"
   xmlns:cc="http://creativecommons.org/ns#"
   xmlns:rdf="http://www.w3.org/1999/02/22-rdf-syntax-ns#"
   xmlns:svg="http://www.w3.org/2000/svg"
   xmlns="http://www.w3.org/2000/svg"
   xmlns:xlink="http://www.w3.org/1999/xlink"
   xmlns:sodipodi="http://sodipodi.sourceforge.net/DTD/sodipodi-0.dtd"
   xmlns:inkscape="http://www.inkscape.org/namespaces/inkscape"
   width="64"
   version="1.1"
   viewBox="0 0 64 64"
   height="64"
   id="svg2"
   inkscape:version="0.91 r13725"
   sodipodi:docname="image-x-generic.svg">
  <sodipodi:namedview
     pagecolor="#ffffff"
     bordercolor="#666666"
     borderopacity="1"
     objecttolerance="10"
     gridtolerance="10"
     guidetolerance="10"
     inkscape:pageopacity="0"
     inkscape:pageshadow="2"
     inkscape:window-width="1920"
     inkscape:window-height="1021"
     id="namedview24"
     showgrid="false"
     inkscape:zoom="2.6074563"
     inkscape:cx="19.839706"
     inkscape:cy="1.0003772"
     inkscape:window-x="0"
     inkscape:window-y="30"
     inkscape:window-maximized="1"
     inkscape:current-layer="svg2"
     inkscape:snap-bbox="true"
     inkscape:bbox-nodes="true">
    <inkscape:grid
       type="xygrid"
       id="grid4210" />
  </sodipodi:namedview>
  <defs
     id="defs4">
    <linearGradient
       id="linearGradient4300-2">
      <stop
         style="stop-color:#7fcc74"
         id="stop4302-4" />
      <stop
         offset="1"
         style="stop-color:#87d37c"
         id="stop4304-1" />
    </linearGradient>
    <linearGradient
       inkscape:collect="always"
       xlink:href="#linearGradient9654"
       id="linearGradient4710"
       gradientUnits="userSpaceOnUse"
       gradientTransform="translate(6,7.99997)"
       x1="40"
       y1="17"
       x2="54"
       y2="31" />
    <linearGradient
       id="linearGradient9654"
       inkscape:collect="always">
      <stop
         id="stop9656"
         offset="0"
         style="stop-color:#060606;stop-opacity:1" />
      <stop
         id="stop9658"
         offset="1"
         style="stop-color:#000000;stop-opacity:0" />
    </linearGradient>
    <linearGradient
       y2="320.47919"
       x2="58"
       y1="392.36221"
       x1="58"
       gradientTransform="matrix(1,0,0,0.84587337,-34,-272.73462)"
       gradientUnits="userSpaceOnUse"
       id="linearGradient5835-91"
       xlink:href="#linearGradient6251"
       inkscape:collect="always" />
    <linearGradient
       inkscape:collect="always"
       id="linearGradient6251">
      <stop
         style="stop-color:#ffffff;stop-opacity:0"
         offset="0"
         id="stop6253" />
      <stop
         style="stop-color:#ffffff;stop-opacity:0.2"
         offset="1"
         id="stop6255" />
    </linearGradient>
  </defs>
  <metadata
     id="metadata84">
    <rdf:RDF>
      <cc:Work
         rdf:about="">
        <dc:format>image/svg+xml</dc:format>
        <dc:type
           rdf:resource="http://purl.org/dc/dcmitype/StillImage" />
      </cc:Work>
    </rdf:RDF>
  </metadata>
  <g
     id="g4219">
    <path
       sodipodi:nodetypes="cccccccc"
       d="m 4,61 0,-50 42,0 14.00001,14 0,22 0,14 L 46,61 Z"
       id="path4694"
       style="color:#000000;clip-rule:nonzero;display:inline;overflow:visible;visibility:visible;opacity:1;isolation:auto;mix-blend-mode:normal;color-interpolation:sRGB;color-interpolation-filters:linearRGB;solid-color:#000000;solid-opacity:1;fill:#87d37c;fill-opacity:1;fill-rule:nonzero;stroke:none;stroke-width:1;stroke-linecap:butt;stroke-linejoin:miter;stroke-miterlimit:4;stroke-dasharray:none;stroke-dashoffset:0;stroke-opacity:1;marker:none;color-rendering:auto;image-rendering:auto;shape-rendering:auto;text-rendering:auto;enable-background:accumulate"
       inkscape:connector-curvature="0"
       inkscape:export-xdpi="96"
       inkscape:export-ydpi="96" />
    <rect
       id="rect4696"
       style="color:#000000;clip-rule:nonzero;display:inline;overflow:visible;visibility:visible;opacity:0.25;isolation:auto;mix-blend-mode:normal;color-interpolation:sRGB;color-interpolation-filters:linearRGB;solid-color:#000000;solid-opacity:1;fill:#000000;fill-opacity:1;fill-rule:nonzero;stroke-width:1;stroke-linecap:butt;stroke-linejoin:miter;stroke-miterlimit:4;stroke-dasharray:none;stroke-dashoffset:0;stroke-opacity:1;color-rendering:auto;image-rendering:auto;shape-rendering:auto;text-rendering:auto;enable-background:accumulate"
       height="0.99995261"
       y="59.999981"
       x="4"
       width="55.999969" />
    <rect
       id="rect4698"
       style="color:#000000;clip-rule:nonzero;display:inline;overflow:visible;visibility:visible;opacity:0.5;isolation:auto;mix-blend-mode:normal;color-interpolation:sRGB;color-interpolation-filters:linearRGB;solid-color:#000000;solid-opacity:1;fill:#ffffff;fill-opacity:1;fill-rule:nonzero;stroke-width:1;stroke-linecap:butt;stroke-linejoin:miter;stroke-miterlimit:4;stroke-dasharray:none;stroke-dashoffset:0;stroke-opacity:1;color-rendering:auto;image-rendering:auto;shape-rendering:auto;text-rendering:auto;enable-background:accumulate"
       height="0.99995261"
       y="10.999983"
       x="4"
       width="41.999969" />
    <path
       d="m 60,24.99997 -14,-14 0,14 z"
       id="path4702"
       style="opacity:0.5;fill:#ffffff;fill-opacity:1;fill-rule:evenodd"
       inkscape:connector-curvature="0"
       inkscape:export-xdpi="96"
       inkscape:export-ydpi="96" />
    <path
       inkscape:connector-curvature="0"
       style="opacity:0.1;fill:url(#linearGradient4710);fill-rule:evenodd"
       id="path4704"
       d="M 46,24.99997 60,38.99996 60,24.99997 Z"
       inkscape:export-xdpi="96"
       inkscape:export-ydpi="96" />
    <path
       sodipodi:nodetypes="cccccccccccccccsssssssssscccccccccccccccccccccccccccccccccccccccccccc"
       inkscape:connector-curvature="0"
       id="path4708"
       d="m 21.05078,21.34375 0,1.82812 1,0 0,-1.82812 z M 18.25781,22.5 17.55078,23.20703 18.84375,24.5 19.55078,23.79297 Z m 6.58594,0 -1.29297,1.29297 0.70703,0.70703 1.29297,-1.29297 z M 21.5,24 C 20.11929,24 19,25.11929 19,26.5 19,27.88071 20.11929,29 21.5,29 22.88071,29 24,27.88071 24,26.5 24,25.11929 22.88071,24 21.5,24 Z m 0,1 C 22.32843,25 23,25.67157 23,26.5 23,27.32843 22.32843,28 21.5,28 20.67157,28 20,27.32843 20,26.5 20,25.67157 20.67157,25 21.5,25 Z m -5.10547,1 0,1 1.82813,0 0,-1 z m 8.48438,0 0,1 1.82812,0 0,-1 z M 39,31 l -2,2 -0.008,0 -8.5918,8.58008 0,0.0195 -4.59962,-4.59961 -9,9 1.40625,0 6.11914,-6.08203 1.40867,-1.40411 1.56399,1.41778 3.10156,3.06836 4,-4 2.95117,-2.93555 3.64844,-3.46217 3.63672,3.51494 L 50.59355,44 51.9998,44 Z M 18.84375,28.5 17.55078,29.79297 18.25781,30.5 19.55078,29.20703 Z m 5.41406,0 -0.70703,0.70703 1.29297,1.29297 0.70703,-0.70703 z m -3.20703,1.32812 0,1.82813 1,0 0,-1.82813 z"
       style="color:#000000;clip-rule:nonzero;display:inline;overflow:visible;visibility:visible;opacity:0.75;isolation:auto;mix-blend-mode:normal;color-interpolation:sRGB;color-interpolation-filters:linearRGB;solid-color:#000000;solid-opacity:1;fill:#ffffff;fill-opacity:1;fill-rule:nonzero;stroke-width:2;stroke-linecap:square;stroke-linejoin:miter;stroke-miterlimit:4;stroke-dasharray:none;stroke-dashoffset:0;stroke-opacity:1;color-rendering:auto;image-rendering:auto;shape-rendering:auto;text-rendering:auto;enable-background:accumulate" />
    <path
       sodipodi:nodetypes="cccccccc"
       d="m 4,61 0,-50 42,0 14.00001,14 0,22 0,14 L 46,61 Z"
       id="path5939-2"
       style="color:#000000;clip-rule:nonzero;display:inline;overflow:visible;visibility:visible;opacity:1;isolation:auto;mix-blend-mode:normal;color-interpolation:sRGB;color-interpolation-filters:linearRGB;solid-color:#000000;solid-opacity:1;fill:url(#linearGradient5835-91);fill-opacity:1;fill-rule:nonzero;stroke:none;stroke-width:1;stroke-linecap:butt;stroke-linejoin:miter;stroke-miterlimit:4;stroke-dasharray:none;stroke-dashoffset:0;stroke-opacity:1;marker:none;color-rendering:auto;image-rendering:auto;shape-rendering:auto;text-rendering:auto;enable-background:accumulate"
       inkscape:connector-curvature="0"
       inkscape:export-xdpi="96"
       inkscape:export-ydpi="96" />
  </g>
</svg>

<svg width="64" xmlns="http://www.w3.org/2000/svg" viewBox="0 0 64 64" height="64" xmlns:xlink="http://www.w3.org/1999/xlink">
 <defs>
  <linearGradient id="a" y1="17" x1="40" y2="31" gradientUnits="userSpaceOnUse" x2="54" gradientTransform="translate(6 8)">
   <stop stop-color="#060606"/>
   <stop offset="1" stop-opacity="0"/>
  </linearGradient>
  <linearGradient id="b" y1="392.36" y2="320.48" x2="0" gradientUnits="userSpaceOnUse" gradientTransform="matrix(1 0 0 .84587-34-272.73)">
   <stop stop-color="#ffffff" stop-opacity="0"/>
   <stop offset="1" stop-color="#ffffff" stop-opacity=".2"/>
  </linearGradient>
  <path color-rendering="auto" color-interpolation-filters="linearRGB" shape-rendering="auto" image-rendering="auto" text-rendering="auto" id="c" color-interpolation="sRGB" color="#000000" d="m4 61v-50h42l14 14v36h-14z"/>
 </defs>
 <use fill="#87d37c" xlink:href="#c"/>
 <g color-rendering="auto" color-interpolation-filters="linearRGB" shape-rendering="auto" image-rendering="auto" text-rendering="auto" color-interpolation="sRGB" color="#000000">
  <rect opacity=".25" x="4" y="60" width="56" height="1"/>
  <rect opacity=".5" x="4" y="11" width="42" fill="#ffffff" height="1"/>
 </g>
 <g fill-rule="evenodd">
  <path opacity=".5" fill="#ffffff" d="m60 25l-14-14v14z"/>
  <path opacity=".1" fill="url(#a)" d="m46 25l14 14v-14z"/>
 </g>
 <path opacity=".75" color-interpolation-filters="linearRGB" color="#000000" image-rendering="auto" color-rendering="auto" stroke-width="2" d="m21.05 21.344v1.828h1v-1.828zm-2.793 1.156l-.707.707 1.293 1.293.707-.707zm6.586 0l-1.293 1.293.707.707 1.293-1.293zm-3.344 1.5c-1.381 0-2.5 1.119-2.5 2.5 0 1.381 1.119 2.5 2.5 2.5 1.381 0 2.5-1.119 2.5-2.5 0-1.381-1.119-2.5-2.5-2.5m0 1c.828 0 1.5.672 1.5 1.5 0 .828-.672 1.5-1.5 1.5-.828 0-1.5-.672-1.5-1.5 0-.828.672-1.5 1.5-1.5m-5.105 1v1h1.828v-1zm8.484 0v1h1.828v-1zm14.12 5l-2 2h-.008l-8.592 8.58v.02l-4.6-4.6-9 9h1.406l6.119-6.082 1.409-1.404 1.564 1.418 3.102 3.068 4-4 2.951-2.936 3.648-3.462 3.637 3.515 7.957 7.883h1.406zm-20.16-2.5l-1.293 1.293.707.707 1.293-1.293zm5.414 0l-.707.707 1.293 1.293.707-.707zm-3.207 1.328v1.828h1v-1.828z" color-interpolation="sRGB" text-rendering="auto" fill="#ffffff" shape-rendering="auto"/>
 <use fill="url(#b)" xlink:href="#c"/>
</svg>
